tipitek/img/icon-setting.svg

<svg width="16" height="17" viewBox="0 0 16 17" fill="none" xmlns="http://www.w3.org/2000/svg">
<path fill-rule="evenodd" clip-rule="evenodd" d="M8.17789 1.83362C8.65522 1.83362 9.11922 2.02962 9.45189 2.37028C9.78389 2.71295 9.96722 3.18295 9.95322 3.65962C9.95455 3.76695 9.98989 3.89095 10.0539 3.99962C10.1599 4.17962 10.3272 4.30628 10.5259 4.35828C10.7246 4.40762 10.9326 4.38095 11.1092 4.27628C11.9626 3.78895 13.0486 4.08095 13.5359 4.92762L13.9512 5.64695C13.9619 5.66628 13.9712 5.68495 13.9792 5.70428C14.4206 6.53828 14.1259 7.58828 13.3059 8.06762C13.1866 8.13628 13.0899 8.23228 13.0232 8.34828C12.9199 8.52762 12.8912 8.74095 12.9432 8.93695C12.9966 9.13695 13.1239 9.30295 13.3032 9.40562C13.7079 9.63828 14.0099 10.0303 14.1306 10.483C14.2512 10.935 14.1852 11.4256 13.9499 11.8303L13.5072 12.5676C13.0199 13.405 11.9339 13.695 11.0892 13.207C10.9766 13.1423 10.8466 13.107 10.7172 13.1036H10.7132C10.5206 13.1036 10.3226 13.1856 10.1786 13.329C10.0326 13.475 9.95255 13.6696 9.95389 13.8763C9.94922 14.8556 9.15255 15.6476 8.17789 15.6476H7.34256C6.36322 15.6476 5.56655 14.8516 5.56655 13.8723C5.56522 13.7516 5.53055 13.6263 5.46589 13.5176C5.36122 13.335 5.19189 13.2043 4.99655 13.1523C4.80255 13.1003 4.58989 13.129 4.41522 13.2303C3.99655 13.4636 3.50389 13.5203 3.05322 13.3936C2.60322 13.2663 2.21455 12.957 1.98655 12.547L1.56989 11.829C1.08255 10.9836 1.37255 9.90028 2.21655 9.41228C2.45589 9.27428 2.60455 9.01695 2.60455 8.74095C2.60455 8.46495 2.45589 8.20695 2.21655 8.06895C1.37189 7.57828 1.08255 6.49228 1.56922 5.64695L2.02122 4.90495C2.50189 4.06895 3.58855 3.77428 4.43589 4.26095C4.55122 4.32962 4.67655 4.36428 4.80389 4.36562C5.21922 4.36562 5.56655 4.02295 5.57322 3.60162C5.57055 3.13695 5.75389 2.69095 6.08789 2.35428C6.42322 2.01828 6.86856 1.83362 7.34256 1.83362H8.17789ZM8.17789 2.83362H7.34256C7.13589 2.83362 6.94255 2.91428 6.79655 3.05962C6.65122 3.20562 6.57189 3.39962 6.57322 3.60628C6.55922 4.58095 5.76255 5.36562 4.79789 5.36562C4.48855 5.36228 4.19055 5.27895 3.93189 5.12428C3.56855 4.91762 3.09389 5.04495 2.88122 5.41495L2.42989 6.15695C2.22322 6.51562 2.34989 6.98962 2.71789 7.20362C3.26389 7.51962 3.60455 8.10895 3.60455 8.74095C3.60455 9.37295 3.26389 9.96162 2.71655 10.2783C2.35055 10.4903 2.22389 10.9616 2.43589 11.3283L2.85655 12.0536C2.96055 12.241 3.13055 12.3763 3.32722 12.4316C3.52322 12.4863 3.73922 12.463 3.91922 12.363C4.18389 12.2076 4.49189 12.127 4.80122 12.127C4.95389 12.127 5.10655 12.1463 5.25589 12.1863C5.70655 12.3076 6.09789 12.609 6.32989 13.0136C6.48055 13.2676 6.56389 13.5643 6.56655 13.867C6.56655 14.3003 6.91456 14.6476 7.34256 14.6476H8.17789C8.60389 14.6476 8.95189 14.3023 8.95389 13.8763C8.95122 13.4056 9.13522 12.9583 9.47189 12.6216C9.80389 12.2896 10.2679 12.0903 10.7319 12.1036C11.0359 12.111 11.3286 12.193 11.5866 12.3396C11.9579 12.5523 12.4319 12.4256 12.6466 12.059L13.0892 11.321C13.1879 11.151 13.2166 10.9376 13.1639 10.741C13.1119 10.5443 12.9812 10.3736 12.8052 10.273C12.3932 10.0356 12.0992 9.65295 11.9772 9.19428C11.8566 8.74428 11.9226 8.25295 12.1579 7.84828C12.3112 7.58162 12.5359 7.35695 12.8052 7.20228C13.1666 6.99095 13.2932 6.51828 13.0832 6.15028C13.0746 6.13562 13.0666 6.12028 13.0599 6.10428L12.6692 5.42695C12.4566 5.05695 11.9832 4.92962 11.6119 5.14095C11.2106 5.37828 10.7332 5.44628 10.2746 5.32562C9.81656 5.20695 9.43256 4.91695 9.19322 4.50762C9.03989 4.25162 8.95655 3.95362 8.95389 3.65028C8.95989 3.42228 8.87989 3.21762 8.73455 3.06762C8.58989 2.91828 8.38656 2.83362 8.17789 2.83362ZM7.76315 6.48302C9.00782 6.48302 10.0205 7.49635 10.0205 8.74102C10.0205 9.98568 9.00782 10.9977 7.76315 10.9977C6.51849 10.9977 5.50582 9.98568 5.50582 8.74102C5.50582 7.49635 6.51849 6.48302 7.76315 6.48302ZM7.76315 7.48302C7.06982 7.48302 6.50582 8.04768 6.50582 8.74102C6.50582 9.43435 7.06982 9.99768 7.76315 9.99768C8.45649 9.99768 9.02049 9.43435 9.02049 8.74102C9.02049 8.04768 8.45649 7.48302 7.76315 7.48302Z" fill="#30CBFF"/>
</svg>

<svg width="16" height="17" fill="none" xmlns="http://www.w3.org/2000/svg"><path fill-rule="evenodd" clip-rule="evenodd" d="M8.178 1.834c.477 0 .941.196 1.274.536.332.343.515.813.501 1.29a.771.771 0 0 0 1.156.617 1.78 1.78 0 0 1 2.427.65l.415.72c.01.02.02.038.028.057a1.782 1.782 0 0 1-.673 2.364.762.762 0 0 0-.283.28.783.783 0 0 0-.08.589c.054.2.18.366.36.469.405.232.707.624.828 1.077.12.452.054.943-.181 1.347l-.443.738a1.776 1.776 0 0 1-2.418.639.794.794 0 0 0-.372-.103h-.004a.771.771 0 0 0-.76.772 1.78 1.78 0 0 1-1.775 1.772h-.835c-.98 0-1.776-.796-1.776-1.776a.772.772 0 0 0-.57-.72.771.771 0 0 0-.582.078c-.418.234-.911.29-1.362.164a1.787 1.787 0 0 1-1.066-.847l-.417-.718a1.772 1.772 0 0 1 .647-2.417.777.777 0 0 0 0-1.343 1.779 1.779 0 0 1-.648-2.422l.452-.742a1.774 1.774 0 0 1 2.415-.644.73.73 0 0 0 .368.105.778.778 0 0 0 .77-.764c-.003-.465.18-.911.514-1.248a1.76 1.76 0 0 1 1.255-.52h.835zm0 1h-.835a.769.769 0 0 0-.77.772 1.785 1.785 0 0 1-1.775 1.76 1.72 1.72 0 0 1-.866-.242.776.776 0 0 0-1.05.291l-.452.742a.774.774 0 0 0 .288 1.047c.546.316.887.905.887 1.537 0 .632-.341 1.22-.888 1.537a.77.77 0 0 0-.281 1.05l.42.726a.784.784 0 0 0 .471.378.79.79 0 0 0 .592-.069 1.75 1.75 0 0 1 1.337-.177 1.779 1.779 0 0 1 1.31 1.681c0 .433.349.78.777.78h.835a.777.777 0 0 0 .776-.77c-.003-.471.181-.919.518-1.255a1.743 1.743 0 0 1 1.26-.518c.304.007.597.089.855.236a.78.78 0 0 0 1.06-.281l.442-.738a.771.771 0 0 0-.284-1.048 1.758 1.758 0 0 1-.828-1.079 1.78 1.78 0 0 1 .828-1.992.777.777 0 0 0 .278-1.052.386.386 0 0 1-.023-.046l-.39-.677a.777.777 0 0 0-1.058-.286 1.744 1.744 0 0 1-1.337.185 1.753 1.753 0 0 1-1.082-.818 1.703 1.703 0 0 1-.24-.858.795.795 0 0 0-.218-.582.779.779 0 0 0-.557-.234zm-.415 3.649a2.26 2.26 0 0 1 2.258 2.258 2.26 2.26 0 0 1-2.258 2.257A2.26 2.26 0 0 1 5.506 8.74a2.26 2.26 0 0 1 2.257-2.258zm0 1A1.258 1.258 0 1 0 9.02 8.741a1.26 1.26 0 0 0-1.257-1.258z" fill="#30CBFF"/></svg>
